X: 1075
T: Doctor O'Halloran
R:double jig
N:"collected by J.O'Neill"
B:O'Neill's 1075
Z:Transcribed by henrik.norbeck@mailbox.swipnet.se
M:6/8
L:1/8
K:Dm
F|D2d ^cde|f2d dcB|ABA AGF|cAf cAF|
D2d ^cde|f2d ecA|BA^G AFE|DFE D2:|
F|DAA AGF|Ecc cA^G|A2(A/^G/) A2(=B/^c/)|ded cAG|
Aff (f/g/a)g|fed ecA|BA^G AFE|DFE D2:|


